rospo-icon-theme-classic-common/16x16/apps/tresorit.svg

<svg height="16" width="16" xmlns="http://www.w3.org/2000/svg"><path d="m8.0421174.00053198a1.7755407 1.8191449 0 0 0 -.9298488.24267798l-5.2244205 3.09037424a1.7755407 1.8191449 0 0 0 -.8878481 1.5755869v6.1811489a1.7755407 1.8191449 0 0 0  .8877704 1.575427l5.2244204 3.090534a1.7755407 1.8191449 0 0 0 1.7755407 0l5.2244205-3.090534a1.7755407 1.8191449 0 0 0  .887848-1.575587v-6.1811489a1.7755407 1.8191449 0 0 0 -.887848-1.5755869l-5.2244205-3.09037424a1.7755407 1.8191449 0 0 0 -.8458475-.24267798z" fill="#4f4f4f"/><path d="m8.0410156 0a1.7755407 1.8191449 0 0 0 -.9296875.24414062l-5.2226562 3.08984378a1.7755407 1.8191449 0 0 0 -.8886719 1.5742187v.1816407a1.7755407 1.8191449 0 0 0  .8886719 1.5761718l5.2226562 3.0898438a1.7755407 1.8191449 0 0 0 1.7773438 0l5.2226561-3.0898438a1.7755407 1.8191449 0 0 0  .888672-1.5761718v-.1816407a1.7755407 1.8191449 0 0 0 -.888672-1.5742187l-5.2226561-3.0917969a1.7755407 1.8191449 0 0 0 -.8457031-.2421875z" fill="#c2c2c2" opacity=".2"/><path d="m1.7382812 3.4316406a1.7755407 1.8191449 0 0 0 -.1367187.1152344 1.7755407 1.8191449 0 0 1  .1132813-.09375 1.7755407 1.8191449 0 0 1  .0234374-.0195312 1.7755407 1.8191449 0 0 1 0-.0019532zm-.7382812 1.6582032v6.0000002a1.7755407 1.8191449 0 0 0  .8886719 1.576172l5.2226562 3.089843a1.7755407 1.8191449 0 0 0  .8886719.242188v-6.0000001a1.7755407 1.8191449 0 0 1 -.8886719-.2421875l-5.2226562-3.0898438a1.7755407 1.8191449 0 0 1 -.8886719-1.5761718z" fill="#fff" opacity=".1"/><path d="m10.373746 1.1218776-9.373746 5.5663599v4.4023065a1.7755407 1.8191449 0 0 0  .012913.208593l13.245989-7.86556a1.7755407 1.8191449 0 0 0 -.146596-.099999l-3.73856-2.2117002z" fill="#00cbec"/><path d="m1.5253906 6.3769531-.5253906.3105469v4.402344a1.7755407 1.8191449 0 0 0  .0136719.208984l4.3457031-2.580078-3.4707031-2.0527344a1.7755407 1.8191449 0 0 1 -.3632813-.2890625z" fill="#00a7c2"/></svg>

<svg xmlns="http://www.w3.org/2000/svg" width="16" height="16" version="1">
 <path style="fill:#4f4f4f" d="M 8.0421174,5.3197567e-4 A 1.7755407,1.8191449 0 0 0 7.1122686,0.24320996 L 1.8878481,3.3335842 A 1.7755407,1.8191449 0 0 0 1,4.9091711 L 1,11.09032 a 1.7755407,1.8191449 0 0 0 0.8877704,1.575427 l 5.2244204,3.090534 a 1.7755407,1.8191449 0 0 0 1.7755407,0 L 14.112152,12.665747 A 1.7755407,1.8191449 0 0 0 15,11.09016 L 15,4.9090111 A 1.7755407,1.8191449 0 0 0 14.112152,3.3334242 L 8.8877315,0.24304996 A 1.7755407,1.8191449 0 0 0 8.041884,3.71977e-4 Z"/>
 <path style="opacity:0.2;fill:#c2c2c2" d="M 8.0410156 0 A 1.7755407 1.8191449 0 0 0 7.1113281 0.24414062 L 1.8886719 3.3339844 A 1.7755407 1.8191449 0 0 0 1 4.9082031 L 1 5.0898438 A 1.7755407 1.8191449 0 0 0 1.8886719 6.6660156 L 7.1113281 9.7558594 A 1.7755407 1.8191449 0 0 0 8.8886719 9.7558594 L 14.111328 6.6660156 A 1.7755407 1.8191449 0 0 0 15 5.0898438 L 15 4.9082031 A 1.7755407 1.8191449 0 0 0 14.111328 3.3339844 L 8.8886719 0.2421875 A 1.7755407 1.8191449 0 0 0 8.0429688 0 L 8.0410156 0 z"/>
 <path style="opacity:0.1;fill:#ffffff" d="M 1.7382812 3.4316406 A 1.7755407 1.8191449 0 0 0 1.6015625 3.546875 A 1.7755407 1.8191449 0 0 1 1.7148438 3.453125 A 1.7755407 1.8191449 0 0 1 1.7382812 3.4335938 A 1.7755407 1.8191449 0 0 1 1.7382812 3.4316406 z M 1 5.0898438 L 1 11.089844 A 1.7755407 1.8191449 0 0 0 1.8886719 12.666016 L 7.1113281 15.755859 A 1.7755407 1.8191449 0 0 0 8 15.998047 L 8 9.9980469 A 1.7755407 1.8191449 0 0 1 7.1113281 9.7558594 L 1.8886719 6.6660156 A 1.7755407 1.8191449 0 0 1 1 5.0898438 z"/>
 <path style="fill:#00cbec" d="M 10.373746,1.1218776 1,6.6882375 1,11.090544 a 1.7755407,1.8191449 0 0 0 0.012913,0.208593 L 14.258902,3.433577 a 1.7755407,1.8191449 0 0 0 -0.146596,-0.099999 l -3.73856,-2.2117002 z"/>
 <path style="fill:#00a7c2" d="M 1.5253906 6.3769531 L 1 6.6875 L 1 11.089844 A 1.7755407 1.8191449 0 0 0 1.0136719 11.298828 L 5.359375 8.71875 L 1.8886719 6.6660156 A 1.7755407 1.8191449 0 0 1 1.5253906 6.3769531 z"/>
</svg>
